supergrafx/_inc/system.svg

<svg height="298" viewBox="0 0 614 298" width="614" xmlns="http://www.w3.org/2000/svg"><path d="m85 0 27 30v37h-38v-27h-33v45h10v38h-23l-28-29v-63l28-31zm84 0v177h12v39h-22l-31-31v-185zm36 0h41v185l-31 31h-22v-39h12zm98 0v216h-41v-216zm40 0 32 30v82l-30 30h-30v-40h18v-62h-18v-40zm139 0v40h-50v136h50v40h-91v-216zm57 0v216h-41v-216zm43 0 32 31v51l-25 26 25 26v82h-42v-87h-21v-40h21v-49h-21v-40zm-108 82v40h-30v-40zm-392 3 30 30v68l-28 33h-57l-27-30v-37h38v27h32v-53h-7v-38zm86 152v12h-64v37h50v-12h-24v-12h38v36h-70c-4.418278 0-8-3.581722-8-8v-45c0-4.418278 3.581722-8 8-8zm90 8v21c0 4.418278-3.581722 8-8 8h-12l21 24h-16l-21-24h-25v24h-14v-61h67c4.418278 0 8 3.581722 8 8zm-14 4h-47v13h47zm80-12 30 61h-16l-24-49h-7l-24 49h-16l31-61zm110 0v12h-57v12h50v12h-50v25h-14v-61zm29 0 20 20 20-20h20l-29 29 31 32h-20l-22-20-22 20h-20l31-32-29-29z" fill="#fff"/></svg>

<svg xmlns="http://www.w3.org/2000/svg" width="614" height="298" viewBox="0 0 614 298">
  <path fill="#FFF" d="M85,0 L112,30 L112,67 L74,67 L74,40 L41,40 L41,85 L51,85 L51,123 L28,123 L0,94 L0,31 L28,0 L85,0 Z M169,0 L169,177 L181,177 L181,216 L159,216 L128,185 L128,0 L169,0 Z M205,0 L246,0 L246,185 L215,216 L193,216 L193,177 L205,177 L205,0 Z M303,0 L303,216 L262,216 L262,0 L303,0 Z M343,0 L375,30 L375,112 L345,142 L315,142 L315,102 L333,102 L333,40 L315,40 L315,0 L343,0 Z M482,0 L482,40 L432,40 L432,176 L482,176 L482,216 L391,216 L391,0 L482,0 Z M539,0 L539,216 L498,216 L498,0 L539,0 Z M582,0 L614,31 L614,82 L589,108 L614,134 L614,216 L572,216 L572,129 L551,129 L551,89 L572,89 L572,40 L551,40 L551,0 L582,0 Z M474,82 L474,122 L444,122 L444,82 L474,82 Z M82,85 L112,115 L112,183 L84,216 L27,216 L0,186 L0,149 L38,149 L38,176 L70,176 L70,123 L63,123 L63,85 L82,85 Z M168,237 L168,249 L104,249 L104,286 L154,286 L154,274 L130,274 L130,262 L168,262 L168,298 L98,298 C93.581722,298 90,294.418278 90,290 L90,245 C90,240.581722 93.581722,237 98,237 L168,237 Z M258,245 L258,266 C258,270.418278 254.418278,274 250,274 L238,274 L259,298 L243,298 L222,274 L197,274 L197,298 L183,298 L183,237 L250,237 C254.418278,237 258,240.581722 258,245 Z M244,249 L197,249 L197,262 L244,262 L244,249 Z M324,237 L354,298 L338,298 L314,249 L307,249 L283,298 L267,298 L298,237 L324,237 Z M434,237 L434,249 L377,249 L377,261 L427,261 L427,273 L377,273 L377,298 L363,298 L363,237 L434,237 Z M463,237 L483,257 L503,237 L523,237 L494,266 L525,298 L505,298 L483,278 L461,298 L441,298 L472,266 L443,237 L463,237 Z"/>
</svg>
